X: 21181
T: Cotillion (From the Opera of La Somnambula) (tune 1)
C:
%R: jig
B: Elias Howe "The Musician's Companion" 1843 p.118 #1
S: http://imslp.org/wiki/The_Musician's_Companion_(Howe,_Elias)
Z: 2015 John Chambers <jc:trillian.mit.edu>
N: Version 1 for ABC software that doens't handls !dim*(! annotations.
%U: Q=!diminuendo(!
%U: q=!diminuendo)!
M: 6/8
L: 1/8
K: G
% - - - - - - - - - - - - - - - - - - - - - - - - - - - - -
V: 1 name="1"
de |\
dcB d2e | dcB d2c | B2B BAB | cAA A/z/ de |\
dcB d2e | dcB d2c | B2B (cA)A | AGG G/z/ H|]
BB |\
B^c ^d2 ef- | fag e2_e | ded cAd | cBA G/z/ .B.B |\
B^c ^d2 ef- | fag e2_e | ded ^cBc | d3 "^D.C."z |]
DD |\
DFA c2e | edc "^dim..."B2d | dcB "^dim..."A2c | cBA GzD |\
DFA c2e | edc B2d | dcB A2G | G3 "^D.C."z |]
% - - - - - - - - - - Dance description - - - - - - - - - -
%%begintext align
%% Right and left four,
%% balance four,
%% ladies chain,
%% promenade four,
%% sides the same.
%%endtext
% - - - - - - - - - - - - - - - - - - - - - - - - - - - - -
%%sep 1 1 300

%%sep 1 1 500

